assets/img/i-d-innovacion.svg

<svg width="90" height="90" viewBox="0 0 90 90" fill="none" xmlns="http://www.w3.org/2000/svg">
<g clip-path="url(#clip0)">
<path d="M45.3968 51.7846H40.754C39.8519 51.7846 38.9867 51.4991 38.3489 50.9909C37.711 50.4827 37.3526 49.7934 37.3526 49.0747V47.9473C36.3736 47.6982 35.4226 47.3839 34.5099 47.0077L33.5168 47.8088C32.8664 48.2999 32.0045 48.5737 31.1085 48.5737C30.2124 48.5737 29.3505 48.2999 28.7002 47.8088L25.423 45.1879C25.1045 44.9369 24.8517 44.6381 24.6791 44.3088C24.5065 43.9795 24.4176 43.6261 24.4174 43.2692C24.4164 42.9137 24.5049 42.5616 24.6776 42.2337C24.8503 41.9059 25.1038 41.6089 25.423 41.3605L26.4161 40.5594C25.9457 39.8327 25.5553 39.0749 25.2492 38.2945H23.8216C22.9259 38.2919 22.0677 38.008 21.4332 37.5043C20.7987 37.0007 20.4391 36.318 20.4326 35.6044V31.8857C20.4326 31.1687 20.7893 30.481 21.4245 29.973C22.0597 29.4651 22.9216 29.1785 23.8216 29.1758H25.2368C25.5716 28.395 25.9868 27.6374 26.4781 26.911L25.4726 26.1198C24.8374 25.6094 24.4806 24.9199 24.4795 24.2011C24.4796 23.8442 24.5686 23.4909 24.7412 23.1616C24.9138 22.8322 25.1666 22.5334 25.485 22.2824L28.7623 19.6714C29.4097 19.1758 30.2727 18.899 31.1705 18.899C32.0684 18.899 32.9314 19.1758 33.5788 19.6714L34.5719 20.4627C35.4874 20.0938 36.4379 19.7829 37.4147 19.533V18.4055C37.4147 17.6868 37.773 16.9975 38.4109 16.4893C39.0488 15.9811 39.914 15.6956 40.8161 15.6956H45.4588C46.3609 15.6956 47.2261 15.9811 47.864 16.4893C48.5018 16.9975 48.8602 17.6868 48.8602 18.4055V19.5231C49.8412 19.7881 50.7922 20.1189 51.703 20.5121L52.6961 19.7209C53.3435 19.2253 54.2065 18.9485 55.1043 18.9485C56.0022 18.9485 56.8652 19.2253 57.5126 19.7209L60.7899 22.3319C61.1081 22.5829 61.3608 22.8818 61.5332 23.2111C61.7057 23.5404 61.7944 23.8937 61.7944 24.2506C61.7944 24.6074 61.7057 24.9607 61.5332 25.29C61.3608 25.6194 61.1081 25.9182 60.7899 26.1692L59.7967 26.9605C60.265 27.6879 60.6554 28.4455 60.9636 29.2253H62.3912C63.2827 29.2252 64.1386 29.5039 64.7747 30.0014C65.4108 30.499 65.7763 31.1756 65.7926 31.8857V35.6044C65.7926 36.3231 65.4343 37.0124 64.7964 37.5206C64.1585 38.0288 63.2933 38.3143 62.3912 38.3143H60.914C60.5814 39.0959 60.1661 39.8535 59.6726 40.5791L60.6657 41.3703C60.984 41.6214 61.2367 41.9202 61.4091 42.2496C61.5815 42.5789 61.6703 42.9322 61.6703 43.289C61.6703 43.6459 61.5815 43.9992 61.4091 44.3285C61.2367 44.6578 60.984 44.9566 60.6657 45.2077L57.3885 47.8286C56.7382 48.3197 55.8762 48.5934 54.9802 48.5934C54.0842 48.5934 53.2222 48.3197 52.5719 47.8286L51.5788 47.0275C50.6636 47.3996 49.7131 47.7137 48.7361 47.967V49.0945C48.7297 49.8013 48.377 50.4782 47.7532 50.9807C47.1294 51.4833 46.2838 51.7718 45.3968 51.7846ZM40.965 48.8868H45.1361V45.7022L46.5388 45.4352C48.1056 45.1412 49.6023 44.6469 50.9705 43.9714L52.2119 43.3681L55.0423 45.6231L57.9968 43.2692L55.1664 41.0143L55.9236 40.0253C56.7715 38.9352 57.3919 37.7428 57.7609 36.4945L58.0961 35.3769H62.0685V32.0736H58.0836L57.7609 30.9561C57.3888 29.7117 56.7685 28.523 55.9236 27.4352L55.1664 26.4462L57.9968 24.1912L55.0423 21.8374L52.2119 24.0923L50.9705 23.489C49.6001 22.8169 48.1042 22.3228 46.5388 22.0253L45.1609 21.7583V18.5934H40.965V21.7583L39.5623 22.0253C37.9962 22.3162 36.4996 22.8071 35.1305 23.4791L33.8892 24.0824L31.0588 21.8275L28.1043 24.1813L31.034 26.4561L30.2768 27.4451C29.426 28.5304 28.8053 29.72 28.4395 30.9659L28.1043 32.0835H24.0699V35.4066H28.0671L28.3899 36.5242C28.7588 37.7725 29.3793 38.9648 30.2271 40.055L30.9843 41.044L28.154 43.289L31.1085 45.6429L33.9388 43.3879L35.1802 43.9912C36.5485 44.6667 38.0451 45.161 39.6119 45.455L41.0147 45.722L40.965 48.8868Z" fill="#9D3BFF"/>
<path d="M43.0759 42.122C41.0381 42.122 39.046 41.6406 37.3516 40.7386C35.6572 39.8366 34.3366 38.5545 33.5568 37.0546C32.7769 35.5546 32.5729 33.9041 32.9704 32.3117C33.368 30.7194 34.3493 29.2567 35.7903 28.1087C37.2312 26.9607 39.0671 26.1789 41.0658 25.8621C43.0645 25.5454 45.1362 25.708 47.0189 26.3293C48.9016 26.9506 50.5108 28.0027 51.6429 29.3526C52.7751 30.7026 53.3794 32.2897 53.3794 33.9132C53.3761 36.0895 52.2895 38.1759 50.3579 39.7148C48.4264 41.2537 45.8076 42.1194 43.0759 42.122ZM43.0759 28.6022C41.7575 28.6022 40.4686 28.9137 39.3724 29.4973C38.2761 30.0809 37.4217 30.9103 36.9171 31.8808C36.4126 32.8512 36.2806 33.9191 36.5378 34.9493C36.795 35.9796 37.4299 36.9259 38.3622 37.6686C39.2945 38.4114 40.4823 38.9172 41.7754 39.1221C43.0685 39.3271 44.4089 39.2219 45.627 38.8199C46.845 38.4179 47.8862 37.7372 48.6187 36.8638C49.3512 35.9904 49.7421 34.9636 49.7421 33.9132C49.7388 32.5054 49.0355 31.1561 47.786 30.1607C46.5366 29.1652 44.8429 28.6048 43.0759 28.6022Z" fill="#9D3BFF"/>
<path d="M73.2535 5.19177C75.0703 5.19177 76.5432 4.01836 76.5432 2.57089C76.5432 1.12342 75.0703 -0.0499878 73.2535 -0.0499878C71.4367 -0.0499878 69.9639 1.12342 69.9639 2.57089C69.9639 4.01836 71.4367 5.19177 73.2535 5.19177Z" fill="#9D3BFF"/>
<path d="M84.0165 15.122C87.0399 15.122 89.491 13.1693 89.491 10.7605C89.491 8.35165 87.0399 6.39893 84.0165 6.39893C80.993 6.39893 78.542 8.35165 78.542 10.7605C78.542 13.1693 80.993 15.122 84.0165 15.122Z" fill="#00C4D1"/>
<path d="M6.59156 78.5374C9.54647 78.5374 11.9419 76.6289 11.9419 74.2747C11.9419 71.9205 9.54647 70.0121 6.59156 70.0121C3.63664 70.0121 1.24121 71.9205 1.24121 74.2747C1.24121 76.6289 3.63664 78.5374 6.59156 78.5374Z" fill="#9D3BFF"/>
<path d="M15.8653 86.489C17.6958 86.489 19.1797 85.3068 19.1797 83.8484C19.1797 82.39 17.6958 81.2077 15.8653 81.2077C14.0347 81.2077 12.5508 82.39 12.5508 83.8484C12.5508 85.3068 14.0347 86.489 15.8653 86.489Z" fill="#00C4D1"/>
<path d="M54.8564 71.5252H31.2702C29.9936 71.5184 28.7532 71.1865 27.7302 70.5779C26.7073 69.9694 25.9555 69.1161 25.5847 68.1428C25.5123 67.9533 25.4706 67.7572 25.4606 67.5593C25.3488 63.3263 24.3681 61.9318 22.2081 58.8659C21.5999 57.9956 20.9047 57.0066 20.1226 55.8198L19.9364 55.5132C18.8322 53.7831 17.4872 52.1575 15.9268 50.667C10.1175 45.2245 6.93902 38.308 6.96401 31.1637C6.96401 14.8351 23.164 1.60217 43.0757 1.60217C62.9875 1.60217 79.1875 14.8351 79.1875 31.1637C79.2055 38.3105 76.0181 45.2273 70.1999 50.667C68.6395 52.1575 67.2945 53.7831 66.1902 55.5132L66.004 55.8198C65.2219 57.0066 64.5268 57.9956 63.9185 58.8659C61.7585 61.9318 60.8275 63.2967 60.6661 67.5593C60.6561 67.7572 60.6144 67.9533 60.5419 68.1428C60.1712 69.1161 59.4193 69.9694 58.3964 70.5779C57.3735 71.1865 56.133 71.5184 54.8564 71.5252ZM30.6495 67.134C30.7127 67.2273 30.8057 67.3057 30.919 67.3613C31.0323 67.4168 31.162 67.4476 31.295 67.4505H54.8812C55.0143 67.4476 55.144 67.4168 55.2573 67.3613C55.3706 67.3057 55.4636 67.2273 55.5268 67.134C55.7378 62.189 57.215 60.0428 59.4247 56.8978C60.0206 56.0571 60.6661 55.1077 61.4233 53.9307L61.6219 53.634C62.9015 51.6186 64.4677 49.7271 66.2895 47.9967C71.3055 43.3075 74.0528 37.3445 74.0357 31.1835C74.0357 17.1593 60.1571 5.74613 43.1006 5.74613C26.044 5.74613 12.1406 17.1395 12.1406 31.1637C12.1235 37.3247 14.8708 43.2877 19.8868 47.9769C21.7086 49.7073 23.2748 51.5989 24.5544 53.6143L24.753 53.911C25.4854 55.0483 26.1557 55.9978 26.7516 56.878C28.9613 59.9934 30.4385 62.1 30.6495 67.0846V67.134Z" fill="#00C4D1"/>
<path d="M56.8919 77.4791H29.2588C28.574 77.4791 27.9173 77.2624 27.433 76.8766C26.9488 76.4908 26.6768 75.9676 26.6768 75.422C26.6768 74.8764 26.9488 74.3532 27.433 73.9674C27.9173 73.5816 28.574 73.3649 29.2588 73.3649H56.8919C57.5767 73.3649 58.2335 73.5816 58.7177 73.9674C59.202 74.3532 59.474 74.8764 59.474 75.422C59.474 75.9676 59.202 76.4908 58.7177 76.8766C58.2335 77.2624 57.5767 77.4791 56.8919 77.4791Z" fill="#9D3BFF"/>
<path d="M55.6878 83.2252H30.463C29.8075 83.1891 29.1937 82.9561 28.7454 82.5733C28.2971 82.1906 28.0479 81.6866 28.0479 81.1632C28.0479 80.6397 28.2971 80.1357 28.7454 79.753C29.1937 79.3702 29.8075 79.1373 30.463 79.1011H55.6878C56.3433 79.1373 56.9571 79.3702 57.4054 79.753C57.8536 80.1357 58.1029 80.6397 58.1029 81.1632C58.1029 81.6866 57.8536 82.1906 57.4054 82.5733C56.9571 82.9561 56.3433 83.1891 55.6878 83.2252Z" fill="#9D3BFF"/>
<path d="M55.0797 89.011H31.0342C30.3494 89.011 29.6927 88.7943 29.2084 88.4085C28.7242 88.0227 28.4521 87.4995 28.4521 86.9539C28.4521 86.4083 28.7242 85.885 29.2084 85.4993C29.6927 85.1135 30.3494 84.8967 31.0342 84.8967H55.0797C55.7645 84.8967 56.4213 85.1135 56.9055 85.4993C57.3898 85.885 57.6618 86.4083 57.6618 86.9539C57.6618 87.4995 57.3898 88.0227 56.9055 88.4085C56.4213 88.7943 55.7645 89.011 55.0797 89.011Z" fill="#9D3BFF"/>
</g>
<defs>
<clipPath id="clip0">
<rect width="90" height="90" fill="white"/>
</clipPath>
</defs>
</svg>

<svg xmlns="http://www.w3.org/2000/svg" width="90" height="90" fill="none" xmlns:v="https://vecta.io/nano"><g clip-path="url(#A)"><g fill="#9d3bff"><path d="M45.397 51.785h-4.643c-.902 0-1.767-.285-2.405-.794s-.996-1.198-.996-1.916v-1.127a21.13 21.13 0 0 1-2.843-.94l-.993.8c-.65.5-1.512.765-2.408.765s-1.76-.273-2.41-.763l-3.277-2.62a2.76 2.76 0 0 1-.744-.879c-.173-.33-.26-.683-.262-1.04a2.2 2.2 0 0 1 .26-1.035c.173-.328.426-.625.745-.873l.993-.8a12.71 12.71 0 0 1-1.167-2.265H23.82c-.896-.003-1.754-.286-2.388-.8s-.994-1.186-1-1.9v-3.72c0-.717.357-1.405.992-1.913s1.497-.794 2.397-.797h1.415a13.64 13.64 0 0 1 1.241-2.265l-1.006-.8c-.635-.5-.992-1.2-.993-1.92 0-.357.1-.7.262-1.04a2.76 2.76 0 0 1 .744-.879l3.277-2.6c.647-.496 1.5-.772 2.408-.772s1.76.277 2.408.772l.993.8c.916-.37 1.866-.68 2.843-.93v-1.128c0-.72.358-1.408.996-1.916s1.503-.794 2.405-.794h4.643c.902 0 1.767.285 2.405.794s.996 1.198.996 1.916v1.118a20.93 20.93 0 0 1 2.843.99l.993-.8c.647-.496 1.5-.772 2.408-.772s1.76.277 2.408.772l3.277 2.6c.318.25.57.55.743.88a2.23 2.23 0 0 1 .26 1.04c0 .357-.1.7-.26 1.04s-.425.628-.743.88l-.993.8a13.04 13.04 0 0 1 1.167 2.265h1.428c.892 0 1.747.28 2.383.776s1.002 1.174 1.018 1.884v3.72c0 .72-.358 1.408-.996 1.916s-1.503.794-2.405.794h-1.477c-.333.782-.748 1.54-1.24 2.265l.993.8c.318.25.57.55.743.88a2.23 2.23 0 0 1 .26 1.04c0 .357-.1.7-.26 1.04s-.425.628-.743.88l-3.277 2.62c-.65.5-1.512.765-2.408.765s-1.758-.274-2.408-.765l-.993-.8c-.915.372-1.866.686-2.843.94v1.127c-.006.707-.36 1.384-.983 1.886s-1.47.8-2.356.804zm-4.432-2.898h4.17v-3.185l1.403-.267a17.18 17.18 0 0 0 4.432-1.464l1.24-.603 2.83 2.255 2.955-2.354-2.83-2.255.757-1c.848-1.1 1.468-2.282 1.837-3.53l.335-1.118h3.972v-3.303H58.08l-.323-1.117c-.372-1.244-.992-2.433-1.837-3.52l-.757-1 2.83-2.255-2.955-2.354-2.83 2.255-1.24-.603c-1.37-.672-2.866-1.166-4.432-1.464l-1.378-.267v-3.165h-4.196v3.165l-1.403.267a17.2 17.2 0 0 0-4.432 1.454l-1.24.603-2.83-2.255-2.955 2.354 2.93 2.275-.757 1c-.85 1.085-1.472 2.275-1.837 3.52l-.335 1.118H24.07v3.323h3.997l.323 1.118c.37 1.248 1 2.44 1.837 3.53l.757 1-2.83 2.245 2.954 2.354 2.83-2.255 1.24.603c1.368.675 2.865 1.17 4.432 1.464l1.403.267-.05 3.165zm2.11-6.765c-2.038 0-4.03-.48-5.724-1.383s-3.015-2.184-3.795-3.684-.984-3.15-.586-4.743 1.38-3.055 2.82-4.203 3.277-1.93 5.276-2.247 4.07-.154 5.953.467 3.492 1.673 4.624 3.023 1.736 2.937 1.736 4.56c-.003 2.176-1.1 4.263-3.02 5.802s-4.55 2.405-7.282 2.407zm0-13.52c-1.318 0-2.607.3-3.703.895s-1.95 1.413-2.455 2.384-.636 2.038-.38 3.07.892 1.977 1.824 2.72 2.12 1.25 3.413 1.454 2.634.1 3.852-.302 2.26-1.083 2.992-1.956 1.123-1.9 1.123-2.95c-.003-1.408-.707-2.757-1.956-3.753s-2.943-1.556-4.7-1.558zm30.178-23.4c1.817 0 3.3-1.173 3.3-2.62s-1.473-2.62-3.3-2.62-3.3 1.173-3.3 2.62 1.473 2.62 3.3 2.62z"/></g><path d="M84.017 15.122c3.023 0 5.475-1.953 5.475-4.36S87.04 6.4 84.017 6.4s-5.474 1.953-5.474 4.362 2.45 4.36 5.474 4.36z" fill="#00c4d1"/><path d="M6.592 78.537c2.955 0 5.35-1.91 5.35-4.263s-2.395-4.263-5.35-4.263-5.35 1.908-5.35 4.263 2.395 4.263 5.35 4.263z" fill="#9d3bff"/><g fill="#00c4d1"><path d="M15.865 86.5c1.83 0 3.314-1.182 3.314-2.64s-1.484-2.64-3.314-2.64-3.314 1.182-3.314 2.64 1.484 2.64 3.314 2.64zm38.99-14.965H31.27c-1.277-.007-2.517-.34-3.54-.947s-1.775-1.462-2.145-2.435a1.9 1.9 0 0 1-.124-.584c-.112-4.233-1.093-5.627-3.252-8.693l-2.086-3.046-.186-.307c-1.104-1.73-2.45-3.356-4-4.846-5.8-5.443-8.988-12.36-8.963-19.503 0-16.33 16.2-29.562 36.112-29.562s36.112 13.233 36.112 29.562c.018 7.147-3.17 14.064-8.988 19.503-1.56 1.5-2.905 3.116-4 4.846l-.186.307c-.782 1.187-1.477 2.176-2.086 3.046-2.16 3.066-3.1 4.43-3.252 8.693a1.9 1.9 0 0 1-.124.584c-.37.973-1.123 1.827-2.145 2.435s-2.263.94-3.54.947zm-24.207-4.4a.69.69 0 0 0 .27.227.93.93 0 0 0 .376.09H54.88c.133-.003.263-.034.376-.1a.69.69 0 0 0 .27-.227c.2-4.945 1.688-7.1 3.898-10.236.596-.84 1.24-1.8 2-2.967l.2-.297c1.28-2.015 2.846-3.907 4.668-5.637 5.016-4.7 7.763-10.652 7.746-16.813 0-14.024-13.88-25.437-30.935-25.437S12.14 17.14 12.14 31.164c-.017 6.16 2.73 12.124 7.746 16.813 1.822 1.73 3.388 3.622 4.668 5.637l.2.297c.732 1.137 1.403 2.087 2 2.967 2.2 3.115 3.687 5.222 3.898 10.207v.05z"/></g><g fill="#9d3bff"><path d="M56.892 77.48H29.26c-.685 0-1.34-.217-1.826-.603s-.756-.9-.756-1.455.272-1.07.756-1.455 1.14-.602 1.826-.602h27.633c.685 0 1.342.217 1.826.602s.756.9.756 1.455-.272 1.07-.756 1.455-1.14.603-1.826.603zm-1.204 5.745H30.463c-.655-.036-1.27-.27-1.718-.652s-.698-.887-.698-1.4.25-1.028.698-1.4 1.062-.616 1.718-.652h25.225c.655.036 1.27.27 1.718.652s.697.887.697 1.4-.25 1.027-.697 1.4-1.062.616-1.718.652zM55.08 89H31.034c-.685 0-1.34-.217-1.826-.602s-.756-.9-.756-1.455.272-1.07.756-1.455 1.14-.603 1.826-.603H55.08c.685 0 1.342.217 1.826.603s.756.9.756 1.455-.272 1.07-.756 1.455-1.14.602-1.826.602z"/></g></g><defs><clipPath id="A"><path fill="#fff" d="M0 0h90v90H0z"/></clipPath></defs></svg>
